!!!COM: Palestrina, Giovanni Perluigi da
!!!OPR: Dum esset summus pontifex
!!!OTL: Kyrie
**kern	**kern	**kern	**kern
*Ibass	*Itenor	*Icalto	*Icant
!Bassus	!Tenor	!Altus	!Cantus
*clefF4	*clefGv2	*clefG2	*clefG2
*k[]	*k[]	*k[]	*k[]
*A:aeo	*A:aeo	*A:aeo	*A:aeo
*M4/2	*M4/2	*M4/2	*M4/2
=1	=1	=1	=1
0r	0r	1.d	1r
.	.	.	[1a
.	.	2d	.
=2	=2	=2	=2
0r	0r	2d	2a]
.	.	2c	2a
.	.	2f	2a
.	.	2g	2g
=3	=3	=3	=3
0r	0r	2.f	2cc
.	.	.	2dd
.	.	4g	.
.	.	4a	1cc
.	.	4b	.
.	.	[2cc	.
=4	=4	=4	=4
0r	1r	2cc]	1dd
.	.	2b	.
.	[1A	1cc	1ee
=5	=5	=5	=5
0r	2A]	2a	2.cc
.	2A	1cc	.
.	.	.	4dd
.	2A	.	4ee
.	.	.	4ff
.	2G	2b	[2gg
=6	=6	=6	=6
0r	2c	2.a	2gg]
.	2d	.	2ff
.	.	4b	.
.	1c	4cc	1ee
.	.	4b	.
.	.	4a	.
.	.	4g	.
=7	=7	=7	=7
0r	1d	4f	2.dd
.	.	4g	.
.	.	1a	.
.	.	.	4cc
.	1e	.	1b
.	.	2g#	.
=8	=8	=8	=8
1.D	2f	1a	0a
.	4d	.	.
.	4e	.	.
.	4f	4d	.
.	4g	4e	.
2D	2a	4f	.
.	.	4g	.
=9	=9	=9	=9
2D	2f	4a	0r
.	.	4b	.
2C	2e	1cc	.
2F	2.d	.	.
2G	.	2b	.
.	4e	.	.
=10	=10	=10	=10
1F	4f	1a	0r
.	4e	.	.
.	4d	.	.
.	4c	.	.
1G	4B	2.g	.
.	4c	.	.
.	[2d	.	.
.	.	4f	.
=11	=11	=11	=11
1A	2d]	1e	1.a
.	2c	.	.
4D	1f	2d	.
4E	.	.	.
4F	.	4A	2a
4G	.	4B	.
=12	=12	=12	=12
4A	1.e	4c	2a
4B	.	4d	.
1c	.	4e	2g
.	.	4f	.
.	.	1g	2cc
2B	2d	.	2dd
=13	=13	=13	=13
2.A	2f	1.a	1cc
.	2.e	.	.
4G	.	.	.
2F	.	.	1dd
.	4d	.	.
2G	[2d	4g	.
.	.	4f	.
=14	=14	=14	=14
1E	2d]	1g	1ee
.	2c#	.	.
2D	2d	[1f	2.a
[2F	[2a	.	.
.	.	.	4b
=15	=15	=15	=15
2F]	2a]	2f]	4cc
.	.	.	4dd
2C	2g	2g	2ee
[1D	2.f	2.a	2.dd
.	4e	4g	4cc
=16	=16	=16	=16
1D]	2d	1f	2b
.	2c	.	1a
1E	1B	1e	.
.	.	.	2g#
=17	=17	=17	=17
0A	0A	0e	0a
=18	=18	=18	=18
1G	1r	0r	0r
[1B-	1d	.	.
=19	=19	=19	=19
2B-]	1.f	0r	0r
2A	.	.	.
1G	.	.	.
.	2e	.	.
=20	=20	=20	=20
2F	1d	0r	0r
2G	.	.	.
2.A	2c	.	.
.	[2e	.	.
4G	.	.	.
=21	=21	=21	=21
2F	4e]	1r	0r
.	4d	.	.
4E	1d	.	.
4D	.	.	.
1E	.	1g	.
.	2c#	.	.
=22	=22	=22	=22
1D	0d	1b-	1dd
2r	.	1a	1ff
2d	.	.	.
=23	=23	=23	=23
2e	1r	1g	1ee
2c	.	.	.
2d	2r	2f	1dd
2B-	2d	2g	.
=24	=24	=24	=24
1A	2e	2.a	2cc
.	2c	.	2.ee
.	.	4g	.
1r	2d	2f	.
.	.	.	4dd
.	2B-	4e	[2dd
.	.	4d	.
=25	=25	=25	=25
2r	1A	1e	2dd]
2A	.	.	2cc#
2F	2r	1d	2dd
2G	2d	.	2b-
=26	=26	=26	=26
4D	1.f	2r	0a
4E	.	.	.
4F	.	2a	.
4G	.	.	.
1A	.	[1cc	.
.	2e	.	.
=27	=27	=27	=27
2F	1d	2cc]	0r
2G	.	2b	.
2A	2c	1a	.
2F	2d	.	.
=28	=28	=28	=28
0E	2.e	2g	0r
.	.	2.b	.
.	4d	.	.
.	2c	.	.
.	.	4a	.
.	4B	[2a	.
.	4A	.	.
=29	=29	=29	=29
1r	1B	2a]	1dd
.	.	2g#	.
1D	2A	[1a	[1ff
.	2d	.	.
=30	=30	=30	=30
2F	2c	0a]	2ff]
2C	2c	.	2ee
4D	1f	.	1dd
4E	.	.	.
4F	.	.	.
4G	.	.	.
=31	=31	=31	=31
2A	2e	2r	2cc
2F	2A	1a	2dd
1E	2B	.	2.ee
.	[2c	2g	.
.	.	.	4dd
=32	=32	=32	=32
1F	2c]	1a	2cc
.	1d	.	4b
.	.	.	4a
1G	.	1g	1b
.	[2e	.	.
=33	=33	=33	=33
0A	2e]	2f	[0a
.	1d	4e	.
.	.	4d	.
.	.	1e	.
.	2c#	.	.
=34	=34	=34	=34
0D	0d	0f#	0a]
=35	=35	=35	=35
0r	1d	0r	0r
.	2d	.	.
.	2d	.	.
=36	=36	=36	=36
1r	1.e	0r	0r
1G	.	.	.
.	4d	.	.
.	4c	.	.
=37	=37	=37	=37
2G	1d	0r	0r
2G	.	.	.
1A	2.c	.	.
.	4d	.	.
=38	=38	=38	=38
2G	2e	0r	0r
2F	1f	.	.
1G	.	.	.
.	2e	.	.
=39	=39	=39	=39
2F	2d	0r	1r
2A	1c	.	.
1G	.	.	1dd
.	4B	.	.
.	4A	.	.
=40	=40	=40	=40
1G	1B	0r	2dd
.	.	.	2dd
4C	1c	.	1ee
4D	.	.	.
4E	.	.	.
4F	.	.	.
=41	=41	=41	=41
2G	2B	1g	2dd
1c	2c	.	2cc
.	1G	2g	1dd
2B	.	2g	.
=42	=42	=42	=42
2.A	0r	1a	2.cc
4B	.	.	4dd
2c	.	2g	2ee
2d	.	2f	[2ff
=43	=43	=43	=43
1c	1r	1g	2ff]
.	.	.	2ee
1r	1d	2f	2.ff
.	.	4d	.
.	.	4e	4ee
=44	=44	=44	=44
0r	2d	4f	2.dd
.	.	4g	.
.	2d	1a	.
.	.	.	4cc
.	1e	.	2.b
.	.	2g	.
.	.	.	4cc
=45	=45	=45	=45
0r	2d	2f	2dd
.	2c	2e	1ee
.	1d	1f	.
.	.	.	2dd
=46	=46	=46	=46
2r	1c	1e	2ee
1c	.	.	1ee
.	1r	2r	.
2c	.	[2g	2ee
=47	=47	=47	=47
2B	0r	2g]	2dd
2c	.	2g	2ee
2d	.	2f	2a
[2c	.	2g	[2ee
=48	=48	=48	=48
2c]	0r	2e	2ee]
4B	.	1a	4dd
4A	.	.	4cc
1B	.	.	1dd
.	.	2g#	.
=49	=49	=49	=49
2A	2r	2a	1cc
2.F	1f	1a	.
.	.	.	2r
4G	.	.	.
4A	2f	2a	[2cc
4B	.	.	.
=50	=50	=50	=50
2c	2e	2g	2cc]
2F	2f	2a	2cc
1r	2g	2e	2b
.	[2f	[2a	2cc
=51	=51	=51	=51
0r	2f]	2a]	2dd
.	4e	4g	1cc
.	4d	4f	.
.	[1e	2g	.
.	.	[2a	4b
.	.	.	4a
=52	=52	=52	=52
1r	1e]	2a]	1b
.	.	2g#	.
2r	1A	1a	1cc
[2F	.	.	.
=53	=53	=53	=53
2F]	2r	2r	1a
2F	1c	2a	.
2E	.	2g	2r
2F	2c	2f	2a
=54	=54	=54	=54
2G	2B	2d	2g
4F	2c	1f	2a
4E	.	.	.
2D	2d	.	2f
2E	[2c	4e	2g
.	.	4d	.
=55	=55	=55	=55
1F	2c]	4c	1a
.	.	4A	.
.	4B	1a	.
.	4A	.	.
1E	1B	.	1ee
.	.	2g#	.
=56	=56	=56	=56
0A	0A	0a	0cc#
==	==	==	==
*-	*-	*-	*-
!!!CDT: 1525/^1526/-1594/2/2
!!!OCY: Italia
!!!AGN: Mass (Paraphrase)
!!!AST: renaissance, vocal
!!!ASW: Antiphon
!!!PWK: Masses, Book 8
!!!RNB: Cadence finals: D
!!!YOR: Le Opere Complete, v. 24, p. 32
!!!YOO: Rome, Italy: Fratelli Scalera
!!!END: 1992//
!!!EED: John Miller
!!!YEC: Copyright 2000, John Miller
!!!YEN: United States of America
!!!YEM: Rights to all derivative electronic formats reserved.
!!!YEM: Refer to licensing agreement for further details.
!!!YEM: This file must be accompanied by the licensing agreement.
!!!YEM: A copy of the licensing agreement may be found at http://www.music-cog.ohio-state.edu/HumdrumDatabases/Palestrina/license.txt
!!!EMD: converted to Humdrum by Bret Aarden
